X:68
T:School for Lovers. VWMLa.068
%%VWML:Anon2-3049-p40-0
F:http://www.vwml.org/record/Anon2/3049/p40
S:Anon. MS, late 18thC, Vaughan Williams Mem. Library
O:England;Yorkshire
Z:vmp/efdss.Simon Wilson. Reviewed PJH 2008.
M:6/8
L:1/8
Q:3/8=120
K:G
G2d B2d|c2e A2c|B2d G2B|A2G FED|\
G2f e2g|f2a d2f|egf ed^c|d3 D3:|
|:d2B d2B|c2A c2A|gdc BAG|FAG FED|\
d2B d2B|c2A c2A|gdc BcA|G3 G,3:|
|:D2D C2B,|D2D C2B,|GBG AcA|BdB AFD|\
D2D C2B,|D2D C2B,|BdB AGF|G3 G,3:|
T:Coassac Dance. VWMLa.069
T:Cossack Dance
R:Country-dance
S:Anon. MS, late 18thC, Vaughan Williams Mem. Library
N:I added the second title, for search programs. PJH.
N:This is a polka. PJH.
O:England;Yorkshire
Z:vmp/efdss.Simon Wilson. Reviewed PJH 2008.
M:2/4
L:1/16
Q:1/4=120
K:A
ABcd e2ef|e2ef edcB|ABcd e2ef|e2a2 A4:|\
|:c2ce e2d2|B2Bd d2c2|A2Ac cBAG|A2c2 E4|
c2ce e2d2|B2Bd d2c2|A2Ac cBAG|A4 A4:|
cEcE BEBE|cEcE d4|
cecA BdBG|A2c2 E4|\
cEcE BEBE|cEcE d4|cecA BdBG|A4 A4:|
